X:1
T:Look Away to Jesus, 11.11.11.11
T:Look Away to Jesus, 11.11.11.11
T:Philip Paul Bliss, 1876
T:Public Domain Courtesy of the Cyber Hymnal™
C:Philip Paul Bliss, 1876
Z:Public Domain
Z:Courtesy of the Cyber Hymnal™
%%score ( 1 2 ) ( 3 4 )
L:1/8
M:4/4
K:Eb
V:1 treble 
V:2 treble 
V:3 bass 
V:4 bass 
V:1
 E2 F2 [EG]2 [EA]2 | [EB]4 [B,E]4 | G2 F2 E2 D2 | [B,E]8 | C2 D2 [CE]2 [DF]2 | [EG]4 [Ec]4 | %6
 B2 =A2 G2 A2 | [DB]8 | [DB]2 [CA]2 G2 F2 | [B,E]4 B,4 | E2 D2 E2 [EG]2 | [DF]8 | %12
 [EG]2 [DA]2 [EB]2 [Ge]2 | [Ae]4 [Ec]4 | B2 A2 G3 F | [B,E]8 |] %16
V:2
 E4 x4 | x8 | C4 B,4 | x8 | C4 x4 | x8 | E4 E4 | x8 | x4 B,4 | x4 B,4 | B,4 E2 x2 | x8 | x8 | x8 | %14
 E4 D4 | x8 |] %16
V:3
 G,2 A,2 B,2 F,2 | [E,G,]4 [E,G,]4 | B,2 A,2 G,2 F,2 | [E,G,]8 | E,2 F,2 [C,G,]4 | [C,C]4 [C,C]4 | %6
 [F,C]4 [F,C]4 | [B,,B,]8 | [B,,F,]4 B,2 A,2 | [E,G,]4 [E,G,]4 | [E,G,]2 [F,A,]2 B,4 | [B,,B,]8 | %12
 B,6 [E,_D]2 | [A,C]4 [A,,A,]4 | G,2 F,2 B,2 A,2 | [E,G,]8 |] %16
V:4
 E,4 E,4 | x8 | A,,4 B,,4 | x8 | C,4 x4 | x8 | x8 | x8 | x4 B,,4 | x8 | x4 G,2 E,2 | x8 | %12
 E,2 F,2 G,2 x2 | x8 | B,,4 B,,4 | x8 |] %16

